X: 12730
T: Father Kelly's
R: reel
M: 4/4
K: Gmajor
|:GA|~B2GB AGEG|DGGF G2AB|c2Ac BAGF|EAAG FDGA|
B2GB AGEG|DGGF GABc|(3ded Bd gdBd|1 cAFA G2:|2 cAFA GABc||
|:(3ded Bd gdBd|(3ded Bd gd(3Bcd|e2ce agfe|defg agfe|
(3ded Bd gdBd|(3ded Bd gdBd|c2Ac BAGB|1 AGFA GABc:|2 AGFA G2||

